icon-themes/breeze_svg/cmd/sc_line_diagonal.svg

<svg viewBox="0 0 16 16" xmlns="http://www.w3.org/2000/svg">/&gt;<path d="m2 2v1h1v-1zm10.5625 0-9.5625 9.5625v-.5625h-1v1 .5625 1.4375h1.4375.5625 1v-1h-.5625l9.5625-9.5625zm-10.5625 3v1h1v-1zm0 3v1h1v-1zm5 5v1h1v-1zm3 0v1h1v-1zm3 0v1h1v-1z" fill="#4d4d4d"/></svg>

<svg xmlns="http://www.w3.org/2000/svg" viewBox="0 0 16 16">
     />
 <path 
     style="fill:#4d4d4d" 
     d="M 2 2 L 2 3 L 3 3 L 3 2 L 2 2 z M 12.5625 2 L 3 11.5625 L 3 11 L 2 11 L 2 12 L 2 12.5625 L 2 14 L 3.4375 14 L 4 14 L 5 14 L 5 13 L 4.4375 13 L 14 3.4375 L 12.5625 2 z M 2 5 L 2 6 L 3 6 L 3 5 L 2 5 z M 2 8 L 2 9 L 3 9 L 3 8 L 2 8 z M 7 13 L 7 14 L 8 14 L 8 13 L 7 13 z M 10 13 L 10 14 L 11 14 L 11 13 L 10 13 z M 13 13 L 13 14 L 14 14 L 14 13 L 13 13 z "
     />
 </svg>
